assets/Twitch Icon.svg

<svg width="48" height="48" viewBox="0 0 48 48" fill="none" xmlns="http://www.w3.org/2000/svg">
<g opacity="0.2">
<path fill-rule="evenodd" clip-rule="evenodd" d="M24 48C10.7452 48 0 37.2548 0 24C0 10.7452 10.7452 0 24 0C37.2548 0 48 10.7452 48 24C48 37.2548 37.2548 48 24 48ZM12.3312 11.2L10.4529 16.2088V36.2416H17.3366V40H21.0948L24.8493 36.2416H30.4825L37.9951 28.7317V11.2H12.3312Z" fill="#7B7989"/>
<path fill-rule="evenodd" clip-rule="evenodd" d="M14.8335 13.7029H35.4917V27.4771L31.1088 31.8603H24.224L20.4706 35.6135V31.8603H14.8335V13.7029ZM21.7199 26.2265H24.224V18.7143H21.7199V26.2265ZM28.6052 26.2265H31.1087V18.7143H28.6052V26.2265Z" fill="#7B7989"/>
</g>
</svg>

<svg width="48" height="48" fill="none" xmlns="http://www.w3.org/2000/svg"><g opacity=".2" fill-rule="evenodd" clip-rule="evenodd" fill="#7B7989"><path d="M24 48C10.745 48 0 37.255 0 24S10.745 0 24 0s24 10.745 24 24-10.745 24-24 24ZM12.331 11.2l-1.878 5.009v20.033h6.884V40h3.758l3.754-3.758h5.634l7.512-7.51V11.2H12.331Z"/><path d="M14.834 13.703h20.658v13.774l-4.383 4.383h-6.885l-3.753 3.754V31.86h-5.637V13.703Zm6.886 12.524h2.504v-7.513H21.72v7.513Zm6.885 0h2.504v-7.513h-2.504v7.513Z"/></g></svg>
